src/images/pages/trade-explanation/zh_cn/higher.svg

<?xml version="1.0" encoding="UTF-8"?>
<svg width="299px" height="199px" viewBox="0 0 299 199" version="1.1" xmlns="http://www.w3.org/2000/svg" xmlns:xlink="http://www.w3.org/1999/xlink">
    <!-- Generator: Sketch 52.6 (67491) - http://www.bohemiancoding.com/sketch -->
    <title>higher</title>
    <desc>Created with Sketch.</desc>
    <g id="Page-1" stroke="none" stroke-width="1" fill="none" fill-rule="evenodd">
        <g id="higher">
            <g id="higher-">
                <polygon id="Path" fill="#F1F2F2" points="0 0 299 0 299 197 0 197"></polygon>
                <path d="M1.98671096,2 L1.98671096,197 L297.013289,197 L297.013289,2 L1.98671096,2 Z M299,0 L299,199 L0,199 L0,0 L299,0 Z" id="Path" fill="#C2C2C2" fill-rule="nonzero"></path>
                <path d="M1.74920034,56.055088 L1.74920034,54.8401224 L295.237332,54.8401224 L295.237332,56.055088 L1.74920034,56.055088 Z M1.74920034,78.5851316 L1.74920034,77.370166 L295.237332,77.370166 L295.237332,78.5851316 L1.74920034,78.5851316 Z M1.74920034,97.3601679 L1.74920034,96.1452023 L295.237332,96.1452023 L295.237332,97.3601679 L1.74920034,97.3601679 Z M1.74920034,138.665248 L1.74920034,137.450282 L295.237332,137.450282 L295.237332,138.665248 L1.74920034,138.665248 Z M1.74920034,157.440284 L1.74920034,156.225318 L295.237332,156.225318 L295.237332,157.440284 L1.74920034,157.440284 Z M1.74920034,179.970328 L1.74920034,178.755362 L295.237332,178.755362 L295.237332,179.970328 L1.74920034,179.970328 Z M36.8870669,34.7950653 L38.1020325,34.7950653 L38.1020325,196.260377 L36.8870669,196.260377 L36.8870669,34.7950653 Z M74.5137504,34.7950653 L75.728716,34.7950653 L75.728716,196.260377 L74.5137504,196.260377 L74.5137504,34.7950653 Z M112.140434,34.7950653 L113.3554,34.7950653 L113.3554,196.260377 L112.140434,196.260377 L112.140434,34.7950653 Z M146.004449,34.7950653 L147.219415,34.7950653 L147.219415,196.260377 L146.004449,196.260377 L146.004449,34.7950653 Z M183.631132,34.7950653 L184.846098,34.7950653 L184.846098,196.260377 L183.631132,196.260377 L183.631132,34.7950653 Z M221.257816,34.7950653 L222.472782,34.7950653 L222.472782,196.260377 L221.257816,196.260377 L221.257816,34.7950653 Z M258.884499,34.7950653 L260.099465,34.7950653 L260.099465,196.260377 L258.884499,196.260377 L258.884499,34.7950653 Z" id="Shape" fill="#DFDEDE" fill-rule="nonzero"></path>
                <polygon id="Path" fill="#2A3052" fill-rule="nonzero" points="2.90644108 116.819829 2.90644108 115.604864 294.513238 115.604864 294.513238 116.819829"></polygon>
                <polygon id="Path" fill="#C2C2C2" fill-rule="nonzero" points="2.7993468 34.7797904 2.7993468 32.3494829 296.362731 32.3494829 296.362731 34.7797904"></polygon>
                <path d="M69.8331577,101.922706 L39.7297268,157.818414 C39.2524205,158.704671 38.1470342,159.036191 37.2607773,158.558885 C36.3745205,158.081579 36.0430005,156.976192 36.5203068,156.089936 L67.8257075,97.9624233 C68.4164344,96.8655684 69.9089383,96.6714201 70.7606203,97.5806434 L101.146835,130.019807 L145.211513,74.3765347 C145.964194,73.4260774 147.417767,73.4617155 148.122965,74.4479164 L191.533154,135.155915 L223.466424,52.2478218 C223.884498,51.1623808 225.198559,50.7409823 226.169914,51.3808559 L260.485449,73.9859996 C261.326064,74.5397495 261.558614,75.6701055 261.004864,76.5107205 C260.451114,77.3513355 259.320758,77.5838857 258.480143,77.0301358 L226.054628,55.6700308 L193.718989,139.622792 C193.197429,140.976913 191.379598,141.208208 190.535559,140.027841 L146.566093,78.5377088 L102.691451,133.941011 C101.999949,134.814214 100.693856,134.86841 99.9323892,134.055497 L69.8331577,101.922706 Z" id="Path" fill="#2A3052" fill-rule="nonzero"></path>
                <path d="M187.239564,147.191156 L152.058614,147.191156 L146.640372,138.96769 L141.22213,147.191156 L106.041181,147.191156 C103.407313,147.191156 101.300218,149.33151 101.300218,151.997566 L101.300218,176.818164 C101.300218,179.484219 103.444939,181.624573 106.041181,181.624573 L187.27719,181.624573 C189.911058,181.624573 192.018152,179.484219 192.018152,176.818164 L192.018152,151.997566 C192.018152,149.33151 189.873431,147.191156 187.239564,147.191156 Z" id="Path" fill="#E88024"></path>
                <g id="Group" opacity="0.6" transform="translate(251.092045, 66.829995)" fill="#FFFFFF">
                    <ellipse id="Oval" cx="8.39075042" cy="8.6780726" rx="8.16499032" ry="8.4863164"></ellipse>
                </g>
                <path d="M259.482796,85.2095378 C254.291567,85.2095378 250.102652,80.8557715 250.102652,75.5080677 C250.102652,70.1603639 254.291567,65.8065976 259.482796,65.8065976 C264.674025,65.8065976 268.86294,70.1603639 268.86294,75.5080677 C268.86294,80.8557715 264.674025,85.2095378 259.482796,85.2095378 Z M259.482796,82.7792304 C263.310366,82.7792304 266.432633,79.5340901 266.432633,75.5080677 C266.432633,71.4820453 263.310366,68.236905 259.482796,68.236905 C255.655226,68.236905 252.532959,71.4820453 252.532959,75.5080677 C252.532959,79.5340901 255.655226,82.7792304 259.482796,82.7792304 Z" id="Oval" fill="#E88024" fill-rule="nonzero"></path>
                <g id="Group" opacity="0.6" transform="translate(29.094613, 148.440155)" fill="#FFFFFF">
                    <ellipse id="Oval" cx="9.03040404" cy="8.5140203" rx="8.16499032" ry="8.4863164"></ellipse>
                </g>
                <path d="M38.1250168,166.655645 C32.9337879,166.655645 28.7448727,162.301879 28.7448727,156.954175 C28.7448727,151.606471 32.9337879,147.252705 38.1250168,147.252705 C43.3162457,147.252705 47.5051609,151.606471 47.5051609,156.954175 C47.5051609,162.301879 43.3162457,166.655645 38.1250168,166.655645 Z M38.1250168,164.225338 C41.9525872,164.225338 45.0748534,160.980197 45.0748534,156.954175 C45.0748534,152.928153 41.9525872,149.683012 38.1250168,149.683012 C34.2974464,149.683012 31.1751802,152.928153 31.1751802,156.954175 C31.1751802,160.980197 34.2974464,164.225338 38.1250168,164.225338 Z" id="Oval" fill="#E88024" fill-rule="nonzero"></path>
            </g>
            <g id="Group" opacity="0.9" transform="translate(247.000000, 128.000000)" fill="#6D6E71" fill-rule="nonzero">
                <path d="M14.906,13.494 L15.823,13.494 L15.823,6.098 L17.038,8.264 L17.612,7.373 C16.532,5.968 15.935,5.211 15.823,5.103 L15.833,4.3 L17.296,4.3 L17.296,3.408 L15.833,3.408 L15.823,0.884 L14.906,0.884 L14.906,3.408 L13.156,3.408 L13.156,4.3 L14.794,4.3 C14.694,5.3 13.42,8.167 12.758,8.863 C12.771,8.867 12.919,9.231 13.204,9.955 C13.972,8.578 14.381,7.751 14.906,6.225 L14.906,13.494 Z M0.655,13.548 L0.655,1.674 L9.95,1.674 L9.95,13.548 L8.895,13.548 L8.895,12.666 L1.693,12.666 L1.693,13.548 L0.655,13.548 Z M8.988,2.515 L1.694,2.515 L1.694,4.875 L8.988,4.875 L8.988,2.515 Z M8.964,5.735 L1.717,5.735 L1.717,8.164 L8.964,8.164 L8.964,5.735 Z M8.95,9.12 L1.731,9.12 L1.731,11.68 L8.95,11.68 L8.95,9.12 Z M18.044,1.674 L25.65,1.674 L25.65,2.504 L23.367,2.504 L23.367,3.534 L25.423,3.534 L25.423,6.766 L18.368,6.766 L18.368,3.534 L20.443,3.534 L20.443,2.504 L18.044,2.504 L18.044,1.674 Z M22.552,2.567 L21.215,2.567 L21.215,3.552 L22.552,3.552 L22.552,2.567 Z M23.337,4.336 L23.337,6.016 L24.533,6.016 L24.533,4.336 L23.337,4.336 Z M22.537,4.325 L21.268,4.325 L21.268,6.012 L22.537,6.012 L22.537,4.325 Z M20.504,4.303 L19.286,4.303 L19.286,6.028 L20.504,6.028 L20.504,4.303 Z M25.04,7.416 L25.04,8.218 L18.665,8.218 L18.665,7.416 L25.04,7.416 Z M25.65,9.268 L25.65,10.035 L22.233,10.035 L22.233,13.488 L21.386,13.488 L21.386,10.035 L18.056,10.035 L18.056,9.268 L25.65,9.268 Z" id="Shape"></path>
                <path d="M23.272,11.206 C23.56,10.916 23.756,10.731 23.859,10.65 C24.217,10.922 25.455,12.131 25.907,12.813 C25.752,12.98 25.529,13.2 25.238,13.473 C25.015,13.033 24.36,12.277 23.272,11.206 Z M19.82,10.37 C20.12,10.626 20.33,10.804 20.449,10.902 C19.701,11.893 18.95,12.665 18.196,13.219 C17.9900539,12.992188 17.795161,12.75558 17.612,12.51 C18.802,11.547 19.539,10.833 19.82,10.37 Z" id="Shape"></path>
            </g>
            <g id="Group" transform="translate(25.000000, 171.000000)" fill="#2A3052" fill-rule="nonzero">
                <path d="M17.71,0.862 L18.868,0.992 L18.39,3.972 C18.544,3.982 19.337,3.982 20.77,3.972 C20.81,6.158 20.358,9.422 19.439,11.299 C20.427,12.361 21.049,13.083 21.305,13.464 L20.533,14.324 L18.949,12.431 C18.024,13.947 17.22,15.003 16.537,15.6 C16.3124523,15.2938443 16.0776524,14.9953416 15.833,14.705 C16.727,13.749 17.611,12.772 18.137,11.624 L16.095,9.589 L17.122,5.056 L15.832,5.056 L15.832,3.972 L17.277,3.972 L17.71,0.862 Z M19.72,5.063 L18.26,5.063 C17.9915631,6.45694446 17.6773936,7.84169168 17.318,9.215 C17.861,9.743 18.298,10.172 18.626,10.5 C19.186,9.307 19.72,5.912 19.72,5.063 Z M24.798,0.883 L25.865,1.248 C24.64,3.789 23.689,5.438 23.012,6.195 C26.1,5.926 27.799,5.739 28.111,5.633 C27.355,4.198 26.916,3.395 26.793,3.223 L27.789,2.739 C28.863,4.589 29.682,6.117 30.245,7.327 L29.163,7.872 L28.6,6.629 C24.696,7.079 22.334,7.312 21.513,7.327 C21.4595606,6.97258388 21.3995503,6.61918974 21.333,6.267 C22.258,5.759 23.413,3.964 24.798,0.883 Z M28.26,15.6 L28.26,14.617 L23.357,14.617 L23.357,15.6 L22.231,15.6 L22.231,8.787 L29.347,8.787 L29.347,15.6 L28.26,15.6 Z M28.252,9.836 L23.385,9.836 L23.385,13.506 L28.252,13.506 L28.252,9.836 Z M1.848,2.803 L1.848,1.983 L14.133,1.983 L14.133,2.803 L11.795,2.803 L11.795,7.156 L15.145,7.156 L15.145,8.419 L11.795,8.419 L11.795,15.276 L10.492,15.276 L10.492,8.419 L5.843,8.409 C5.495,14.263 2.367,15.276 1.976,15.533 C1.7300644,15.2173273 1.50396288,14.8866914 1.299,14.543 C2.825,13.374 4.559,12.069 4.559,8.409 C3.255,8.416 1.801,8.444 0.946,8.419 L0.946,7.156 L4.559,7.156 L4.559,2.803 L1.848,2.803 Z M10.458,3.033 L5.971,3.033 L5.971,7.127 L10.459,7.127 L10.459,3.033 L10.458,3.033 Z" id="Shape"></path>
            </g>
            <g id="Group" transform="translate(15.000000, 8.000000)" fill="#020202" fill-rule="nonzero">
                <path d="M18.392,2.351 L18.392,4.118 L24.242,4.118 L24.242,8.112 L17.356,8.112 L17.356,9.872 L24.242,9.872 C24.2228467,11.5736122 24.2101799,13.2752912 24.204,14.977 C24.204,16.177 23.704,15.945 20.944,15.803 L21.327,17.548 L24.242,17.548 C24.983,17.548 25.99,17.088 25.99,15.673 L25.99,9.95 L32.596,9.873 L32.596,8.112 L25.99,8.112 L25.99,4.118 L31.425,4.118 L31.425,2.351 L18.392,2.351 Z M0.112,3.985 L0.112,2.331 L6.84,2.359 L6.36,1.302 L8.356,0.962 L8.784,2.359 L15.394,2.359 L15.394,3.985 L0.112,3.985 Z M2.818,5.283 L12.836,5.283 L12.836,8.923 L2.818,8.923 L2.818,5.283 Z M11.151,6.68 L4.538,6.68 L4.538,7.531 L11.151,7.531 L11.151,6.68 Z M2.568,18.182 L0.87,18.182 L0.87,10.297 L14.732,10.247 L14.732,15.89 C14.732,16.403 14.954,17.679 13.386,18.06 C12.886,18.183 12.152,18.12 11.237,18.137 C11.039,17.412 10.897,16.891 10.812,16.573 C11.823,16.474 13.037,16.973 13.037,15.782 L13.037,11.795 L2.567,11.795 L2.567,18.182 L2.568,18.182 Z" id="Shape"></path>
                <path d="M11.355,12.445 L11.355,16.171 L4.3,16.171 L4.3,12.445 L11.356,12.445 L11.355,12.445 Z M9.779,13.795 L5.869,13.795 L5.869,14.868 L9.779,14.868 L9.779,13.794 L9.779,13.795 Z" id="Shape"></path>
            </g>
            <path d="M252.871,101.5 L252.871,102.52 C251.341,103.075 249.616,103.525 247.666,103.885 L247.531,102.835 C249.571,102.505 251.341,102.055 252.871,101.5 Z M250.096,90.7 L251.101,91.09 C250.336,93.04 249.556,94.6 248.776,95.77 C249.481,95.68 250.186,95.575 250.906,95.455 C251.191,94.915 251.491,94.36 251.791,93.79 L252.736,94.135 C251.371,96.67 250.231,98.47 249.316,99.55 C250.459459,99.324077 251.586877,99.0234323 252.691,98.65 L252.691,99.61 C251.071,100.165 249.511,100.54 248.011,100.735 L247.726,99.76 C247.921,99.67 248.086,99.565 248.221,99.445 C248.791,98.86 249.496,97.87 250.336,96.46 C249.481,96.595 248.626,96.715 247.756,96.835 L247.486,95.845 C247.651,95.77 247.801,95.635 247.936,95.44 C248.776,94.06 249.496,92.485 250.096,90.7 Z M252.691,92.605 L256.276,92.605 L256.276,90.79 L257.371,90.79 L257.371,92.605 L260.941,92.605 L260.941,93.655 L257.371,93.655 L257.371,95.875 L260.506,95.875 L260.506,96.925 L253.186,96.925 L253.186,95.875 L256.276,95.875 L256.276,93.655 L252.691,93.655 L252.691,92.605 Z M260.071,98.425 L260.071,104.455 L259.021,104.455 L259.021,103.735 L254.731,103.735 L254.731,104.455 L253.666,104.455 L253.666,98.425 L260.071,98.425 Z M254.731,102.715 L259.021,102.715 L259.021,99.445 L254.731,99.445 L254.731,102.715 Z M262.771,92.29 L268.636,92.29 L268.636,90.79 L269.746,90.79 L269.746,92.29 L275.581,92.29 L275.581,93.325 L269.746,93.325 L269.746,94.795 L274.471,94.795 L274.471,99.04 L270.661,99.04 C271.741,100.57 273.571,101.92 276.121,103.12 L275.386,104.05 C272.731,102.565 270.871,100.9 269.791,99.04 L269.746,99.04 L269.746,104.485 L268.636,104.485 L268.636,99.04 L268.591,99.04 C267.451,101.08 265.561,102.76 262.906,104.08 L262.276,103.09 C264.766,102.04 266.581,100.69 267.706,99.04 L263.941,99.04 L263.941,94.795 L268.636,94.795 L268.636,93.325 L262.771,93.325 L262.771,92.29 Z M273.391,98.05 L273.391,95.815 L269.746,95.815 L269.746,98.05 L273.391,98.05 Z M268.636,98.05 L268.636,95.815 L265.021,95.815 L265.021,98.05 L268.636,98.05 Z" id="Shape" fill="#2A3052" fill-rule="nonzero"></path>
            <path d="M150.375,165.075 L150.375,172.3 L149.075,172.3 L149.075,166.425 L145.6,166.425 L145.6,172.25 L144.275,172.25 L144.275,165.075 L150.375,165.075 Z M147.35,173.35 C147.25,173.6 147.15,173.825 147.05,174.025 C146.5,175.025 145.625,175.8 144.375,176.35 L143.625,175.175 C144.775,174.65 145.575,173.975 146.05,173.175 C146.45,172.3 146.675,171.175 146.725,169.775 L146.725,167.6 L147.925,167.6 L147.925,169.775 C147.9,170.625 147.825,171.4 147.7,172.075 C148.65,172.9 149.45,173.725 150.1,174.55 L149.15,175.5 C148.675,174.8 148.075,174.1 147.35,173.35 Z M136.45,155.075 L146.75,155.075 C146.5,154.525 146.25,154.05 145.975,153.6 L147.775,153.3 C148.025,153.825 148.25,154.425 148.45,155.075 L158.55,155.075 L158.55,156.375 L140.375,156.375 L140.375,157.675 L156.85,157.675 L156.85,158.95 L138.7,158.95 L138.7,156.375 L136.45,156.375 L136.45,155.075 Z M139.4,160.125 L155.525,160.125 L155.525,163.85 L139.4,163.85 L139.4,160.125 Z M153.775,162.675 L153.775,161.3 L141.15,161.3 L141.15,162.675 L153.775,162.675 Z M139.025,169.475 C139,170.1 138.95,170.7 138.9,171.25 L141.65,171.25 L141.65,169.475 L139.025,169.475 Z M141.65,168.3 L141.65,166.5 L139.025,166.5 L139.025,168.3 L141.65,168.3 Z M138.725,172.425 C138.425,174.05 137.875,175.425 137.1,176.575 L135.975,175.55 C137.025,173.95 137.55,171.95 137.575,169.5 L137.575,165.125 L143.075,165.125 L143.075,174.75 C143.075,175.875 142.475,176.45 141.3,176.45 L140.275,176.45 L139.9,175.1 C140.225,175.15 140.55,175.175 140.85,175.175 C141.375,175.175 141.65,174.85 141.65,174.25 L141.65,172.425 L138.725,172.425 Z M157.625,176.175 L156.75,176.175 C155.85,176.175 155.425,175.675 155.425,174.725 L155.425,166.55 L153.05,166.55 L153.05,169.125 C153.05,170.975 152.925,172.4 152.675,173.4 C152.4,174.4 151.825,175.45 150.95,176.55 L149.825,175.575 C150.575,174.675 151.075,173.85 151.325,173.075 C151.575,172.275 151.7,170.95 151.7,169.125 L151.7,165.125 L156.775,165.125 L156.775,174.3 C156.775,174.675 156.925,174.875 157.25,174.875 L157.4,174.875 C157.55,174.875 157.675,174.75 157.75,174.5 C157.825,174.25 157.9,173.425 157.975,172 L159.125,172.4 C158.975,174.1 158.825,175.15 158.65,175.575 C158.45,175.975 158.125,176.175 157.625,176.175 Z M154.05,168.775 C154.5,169.775 154.925,170.825 155.275,171.975 L154.325,172.4 C153.95,171.15 153.55,170.05 153.1,169.1 L154.05,168.775 Z M164.23584,168.98291 L162.197266,168.98291 L162.038574,156.226562 L164.406738,156.226562 L164.23584,168.98291 Z M161.953125,172.864746 C161.953125,172.498533 162.065022,172.191326 162.288818,171.943115 C162.512615,171.694904 162.844236,171.570801 163.283691,171.570801 C163.723147,171.570801 164.056802,171.694904 164.284668,171.943115 C164.512534,172.191326 164.626465,172.498533 164.626465,172.864746 C164.626465,173.230959 164.512534,173.534097 164.284668,173.77417 C164.056802,174.014243 163.723147,174.134277 163.283691,174.134277 C162.844236,174.134277 162.512615,174.014243 162.288818,173.77417 C162.065022,173.534097 161.953125,173.230959 161.953125,172.864746 Z" id="赢!" fill="#FFFFFF" fill-rule="nonzero"></path>
        </g>
    </g>
</svg>

<svg width="299" height="199" xmlns="http://www.w3.org/2000/svg"><g fill="none" fill-rule="evenodd"><path fill="#F1F2F2" d="M0 0h299v197H0z"/><path d="M1.987 2v195h295.026V2H1.987zM299 0v199H0V0h299z" fill="#C2C2C2" fill-rule="nonzero"/><path d="M1.75 56.055V54.84h293.487v1.215H1.75zm0 22.53V77.37h293.487v1.215H1.75zm0 18.775v-1.215h293.487v1.215H1.75zm0 41.305v-1.215h293.487v1.215H1.75zm0 18.775v-1.215h293.487v1.215H1.75zm0 22.53v-1.215h293.487v1.215H1.75zM36.886 34.795h1.215V196.26h-1.215V34.795zm37.627 0h1.215V196.26h-1.215V34.795zm37.626 0h1.215V196.26h-1.215V34.795zm33.864 0h1.215V196.26h-1.215V34.795zm37.627 0h1.215V196.26h-1.215V34.795zm37.627 0h1.215V196.26h-1.215V34.795zm37.626 0h1.215V196.26h-1.215V34.795z" fill="#DFDEDE" fill-rule="nonzero"/><path fill="#2A3052" fill-rule="nonzero" d="M2.906 116.82v-1.215h291.607v1.215z"/><path fill="#C2C2C2" fill-rule="nonzero" d="M2.8 34.78v-2.43h293.563v2.43z"/><path d="M69.833 101.923L39.73 157.818a1.823 1.823 0 0 1-3.21-1.728l31.306-58.128a1.823 1.823 0 0 1 2.935-.381l30.386 32.439 44.065-55.643a1.823 1.823 0 0 1 2.911.07l43.41 60.709 31.933-82.908a1.823 1.823 0 0 1 2.704-.867l34.315 22.605a1.823 1.823 0 1 1-2.005 3.044l-32.425-21.36-32.336 83.953c-.522 1.354-2.34 1.585-3.183.405l-43.97-61.49-43.875 55.403a1.823 1.823 0 0 1-2.759.114l-30.099-32.132z" fill="#2A3052" fill-rule="nonzero"/><path d="M187.24 147.191h-35.181l-5.419-8.223-5.418 8.223h-35.18c-2.635 0-4.742 2.14-4.742 4.807v24.82c0 2.666 2.145 4.807 4.741 4.807h81.236c2.634 0 4.741-2.14 4.741-4.807v-24.82c0-2.666-2.145-4.807-4.778-4.807z" fill="#E88024"/><ellipse cx="8.391" cy="8.678" rx="8.165" ry="8.486" opacity=".6" transform="translate(251.092 66.83)" fill="#FFF"/><path d="M259.483 85.21c-5.191 0-9.38-4.354-9.38-9.702s4.189-9.701 9.38-9.701c5.191 0 9.38 4.353 9.38 9.701 0 5.348-4.189 9.702-9.38 9.702zm0-2.43c3.827 0 6.95-3.246 6.95-7.272s-3.123-7.271-6.95-7.271c-3.828 0-6.95 3.245-6.95 7.271s3.122 7.271 6.95 7.271z" fill="#E88024" fill-rule="nonzero"/><ellipse cx="9.03" cy="8.514" rx="8.165" ry="8.486" opacity=".6" transform="translate(29.095 148.44)" fill="#FFF"/><path d="M38.125 166.656c-5.191 0-9.38-4.354-9.38-9.702s4.189-9.701 9.38-9.701c5.191 0 9.38 4.353 9.38 9.701 0 5.348-4.189 9.702-9.38 9.702zm0-2.43c3.828 0 6.95-3.246 6.95-7.272s-3.122-7.271-6.95-7.271c-3.828 0-6.95 3.245-6.95 7.271s3.122 7.271 6.95 7.271z" fill="#E88024" fill-rule="nonzero"/><g opacity=".9" fill="#6D6E71" fill-rule="nonzero"><path d="M261.906 141.494h.917v-7.396l1.215 2.166.574-.891c-1.08-1.405-1.677-2.162-1.789-2.27l.01-.803h1.463v-.892h-1.463l-.01-2.524h-.917v2.524h-1.75v.892h1.638c-.1 1-1.374 3.867-2.036 4.563.013.004.161.368.446 1.092.768-1.377 1.177-2.204 1.702-3.73v7.269zm-14.251.054v-11.874h9.295v11.874h-1.055v-.882h-7.202v.882h-1.038zm8.333-11.033h-7.294v2.36h7.294v-2.36zm-.024 3.22h-7.247v2.429h7.247v-2.429zm-.014 3.385h-7.219v2.56h7.219v-2.56zm9.094-7.446h7.606v.83h-2.283v1.03h2.056v3.232h-7.055v-3.232h2.075v-1.03h-2.399v-.83zm4.508.893h-1.337v.985h1.337v-.985zm.785 1.769v1.68h1.196v-1.68h-1.196zm-.8-.011h-1.269v1.687h1.269v-1.687zm-2.033-.022h-1.218v1.725h1.218v-1.725zm4.536 3.113v.802h-6.375v-.802h6.375zm.61 1.852v.767h-3.417v3.453h-.847v-3.453h-3.33v-.767h7.594z"/><path d="M270.272 139.206c.288-.29.484-.475.587-.556.358.272 1.596 1.481 2.048 2.163a14.41 14.41 0 0 1-.669.66c-.223-.44-.878-1.196-1.966-2.267zm-3.452-.836c.3.256.51.434.629.532-.748.991-1.499 1.763-2.253 2.317a9.533 9.533 0 0 1-.584-.709c1.19-.963 1.927-1.677 2.208-2.14z"/></g><g fill="#2A3052" fill-rule="nonzero"><path d="M42.71 171.862l1.158.13-.478 2.98c.154.01.947.01 2.38 0 .04 2.186-.412 5.45-1.331 7.327.988 1.062 1.61 1.784 1.866 2.165l-.772.86-1.584-1.893c-.925 1.516-1.729 2.572-2.412 3.169-.225-.306-.46-.605-.704-.895.894-.956 1.778-1.933 2.304-3.081l-2.042-2.035 1.027-4.533h-1.29v-1.084h1.445l.433-3.11zm2.01 4.201h-1.46a64.8 64.8 0 0 1-.942 4.152c.543.528.98.957 1.308 1.285.56-1.193 1.094-4.588 1.094-5.437zm5.078-4.18l1.067.365c-1.225 2.541-2.176 4.19-2.853 4.947 3.088-.269 4.787-.456 5.099-.562-.756-1.435-1.195-2.238-1.318-2.41l.996-.484c1.074 1.85 1.893 3.378 2.456 4.588l-1.082.545-.563-1.243c-3.904.45-6.266.683-7.087.698a28.978 28.978 0 0 0-.18-1.06c.925-.508 2.08-2.303 3.465-5.384zM53.26 186.6v-.983h-4.903v.983h-1.126v-6.813h7.116v6.813H53.26zm-.008-5.764h-4.867v3.67h4.867v-3.67zm-26.404-7.033v-.82h12.285v.82h-2.338v4.353h3.35v1.263h-3.35v6.857h-1.303v-6.857l-4.649-.01c-.348 5.854-3.476 6.867-3.867 7.124a9.669 9.669 0 0 1-.677-.99c1.526-1.169 3.26-2.474 3.26-6.134-1.304.007-2.758.035-3.613.01v-1.263h3.613v-4.353h-2.711zm8.61.23h-4.487v4.094h4.488v-4.094h-.001z"/></g><g fill="#020202" fill-rule="nonzero"><path d="M33.392 10.351v1.767h5.85v3.994h-6.886v1.76h6.886c-.02 1.702-.032 3.403-.038 5.105 0 1.2-.5.968-3.26.826l.383 1.745h2.915c.741 0 1.748-.46 1.748-1.875V17.95l6.606-.077v-1.761H40.99v-3.994h5.435v-1.767H33.392zm-18.28 1.634v-1.654l6.728.028-.48-1.057 1.996-.34.428 1.397h6.61v1.626H15.112zm2.706 1.298h10.018v3.64H17.818v-3.64zm8.333 1.397h-6.613v.851h6.613v-.851zm-8.583 11.502H15.87v-7.885l13.862-.05v5.643c0 .513.222 1.789-1.346 2.17-.5.123-1.234.06-2.149.077a363.28 363.28 0 0 1-.425-1.564c1.011-.099 2.225.4 2.225-.791v-3.987h-10.47v6.387h.001z"/><path d="M26.355 20.445v3.726H19.3v-3.726h7.056-.001zm-1.576 1.35h-3.91v1.073h3.91v-1.074.001z"/></g><path d="M252.871 101.5v1.02c-1.53.555-3.255 1.005-5.205 1.365l-.135-1.05c2.04-.33 3.81-.78 5.34-1.335zm-2.775-10.8l1.005.39c-.765 1.95-1.545 3.51-2.325 4.68.705-.09 1.41-.195 2.13-.315.285-.54.585-1.095.885-1.665l.945.345c-1.365 2.535-2.505 4.335-3.42 5.415a26.668 26.668 0 0 0 3.375-.9v.96c-1.62.555-3.18.93-4.68 1.125l-.285-.975c.195-.09.36-.195.495-.315.57-.585 1.275-1.575 2.115-2.985-.855.135-1.71.255-2.58.375l-.27-.99c.165-.075.315-.21.45-.405.84-1.38 1.56-2.955 2.16-4.74zm2.595 1.905h3.585V90.79h1.095v1.815h3.57v1.05h-3.57v2.22h3.135v1.05h-7.32v-1.05h3.09v-2.22h-3.585v-1.05zm7.38 5.82v6.03h-1.05v-.72h-4.29v.72h-1.065v-6.03h6.405zm-5.34 4.29h4.29v-3.27h-4.29v3.27zm8.04-10.425h5.865v-1.5h1.11v1.5h5.835v1.035h-5.835v1.47h4.725v4.245h-3.81c1.08 1.53 2.91 2.88 5.46 4.08l-.735.93c-2.655-1.485-4.515-3.15-5.595-5.01h-.045v5.445h-1.11V99.04h-.045c-1.14 2.04-3.03 3.72-5.685 5.04l-.63-.99c2.49-1.05 4.305-2.4 5.43-4.05h-3.765v-4.245h4.695v-1.47h-5.865V92.29zm10.62 5.76v-2.235h-3.645v2.235h3.645zm-4.755 0v-2.235h-3.615v2.235h3.615z" fill="#2A3052" fill-rule="nonzero"/><path d="M150.375 165.075v7.225h-1.3v-5.875H145.6v5.825h-1.325v-7.175h6.1zm-3.025 8.275c-.1.25-.2.475-.3.675-.55 1-1.425 1.775-2.675 2.325l-.75-1.175c1.15-.525 1.95-1.2 2.425-2 .4-.875.625-2 .675-3.4V167.6h1.2v2.175c-.025.85-.1 1.625-.225 2.3.95.825 1.75 1.65 2.4 2.475l-.95.95c-.475-.7-1.075-1.4-1.8-2.15zm-10.9-18.275h10.3c-.25-.55-.5-1.025-.775-1.475l1.8-.3c.25.525.475 1.125.675 1.775h10.1v1.3h-18.175v1.3h16.475v1.275H138.7v-2.575h-2.25v-1.3zm2.95 5.05h16.125v3.725H139.4v-3.725zm14.375 2.55V161.3H141.15v1.375h12.625zm-14.75 6.8a34.912 34.912 0 0 1-.125 1.775h2.75v-1.775h-2.625zm2.625-1.175v-1.8h-2.625v1.8h2.625zm-2.925 4.125c-.3 1.625-.85 3-1.625 4.15l-1.125-1.025c1.05-1.6 1.575-3.6 1.6-6.05v-4.375h5.5v9.625c0 1.125-.6 1.7-1.775 1.7h-1.025l-.375-1.35c.325.05.65.075.95.075.525 0 .8-.325.8-.925v-1.825h-2.925zm18.9 3.75h-.875c-.9 0-1.325-.5-1.325-1.45v-8.175h-2.375v2.575c0 1.85-.125 3.275-.375 4.275-.275 1-.85 2.05-1.725 3.15l-1.125-.975c.75-.9 1.25-1.725 1.5-2.5.25-.8.375-2.125.375-3.95v-4h5.075v9.175c0 .375.15.575.475.575h.15c.15 0 .275-.125.35-.375.075-.25.15-1.075.225-2.5l1.15.4c-.15 1.7-.3 2.75-.475 3.175-.2.4-.525.6-1.025.6zm-3.575-7.4c.45 1 .875 2.05 1.225 3.2l-.95.425c-.375-1.25-.775-2.35-1.225-3.3l.95-.325zm10.186.208h-2.039l-.158-12.756h2.368l-.171 12.756zm-2.283 3.882c0-.366.112-.674.336-.922.224-.248.555-.372.995-.372.44 0 .773.124 1 .372.229.248.342.556.342.922s-.113.67-.341.91c-.228.24-.562.36-1.001.36-.44 0-.771-.12-.995-.36-.224-.24-.336-.544-.336-.91z" fill="#FFF" fill-rule="nonzero"/></g></svg>
